X:6
T: Az alföldi csárdában
K:F
L:1/4
M:2/4
ga/g/ | d c | f2 | 
ga/g/ | d c | d2 | 
g/d/c/d/ | GF | B2 | 
cd/c/ | GF | G2 |
 
